X:1
T:Title
%%score { ( 1 3 ) | 2 }
L:1/8
M:12/8
K:Eb
V:1 treble nm="Grand Piano"
V:3 treble 
V:2 bass 
V:1
 z6 z2[Q:1/4=100] B, E2 F | G6- G2 z z3 | B6- B2 z z3 | A6- A2 z z3 | G6- G2 z z3 | G6- G2 z z3 | %6
 B6- B2 z z3 | d6- d2 z z3 |[M:11/8] E-E-E-E-E-E- E3 z2 |[M:1/8] B | %10
[M:6/4] c2 B G2 [GB] [Ge]4- [Ge]B | c2 B E2 G [DF]4- [DF][EG] | %12
 [FA]2 [EG] [FA]2 [DB] [Fd]4- [Fd][Ec] | [DB]2 F G2 A G4- GB | c2 B G2 [GB] [Ge]4- [Ge][Ge] | %15
 [Ee]2 [EG] [EA]2 B c4- cc/[Ad]/ | [Ge]2 [EB] [Ed]2 [Ec] [EB]2 [B,EG] [CE]2 [EAc] | %17
[M:9/8] [EGB]2 [B,EG] [B,EG]2 [A,DF] [G,E]3 |] %18
V:2
 z12 | z2 [E,B,] [E,B,]2 [E,B,] .[E,B,]3 z3 | z2 [E,G,] [E,G,]2 [E,G,] .[E,G,]3 z3 | %3
 z2 [B,,B,] [B,,B,]2 [B,,B,] .[B,,B,]3 z3 | z2 [E,B,] [E,B,]2 [E,B,] .[E,B,]3 z3 | %5
 z2 [E,B,] [E,B,]2 [E,B,] .[E,B,]3 z3 | z2 [E,B,] [E,B,]2 [E,B,] .[E,B,]3 z3 | %7
 z2 B,, B,,2 B,, .B,,3 z3 |[M:11/8] z2 [E,G,] [E,G,]2 [E,A,] [E,G,]3 z2 |[M:1/8] [E,G,E] | %10
[M:6/4] [E,A,E]2 [E,G,E] [E,B,E]2 [E,E] [E,B,]4- [E,B,][E,G,D] | %11
 [E,A,E]2 [E,G,E] [G,B,]2 [E,B,E] [B,,B,]4- [B,,B,][B,,B,] | %12
 [B,,B,]2 [B,,B,] [B,,B,]2 [B,,B,] [B,,B,]4- [B,,B,][B,,B,] | %13
 [B,,B,]2 [A,B,D] [G,B,E]2 [F,B,D] [E,B,E]4- [E,B,E][E,G,E] | %14
 [E,A,E]2 [E,G,E] [E,B,E]2 [E,E] [E,B,]4- [E,B,][E,B,] | %15
 [E,G,]2 [_D,B,] [C,A,]2 [E,G,D] [A,E]4- [A,E][A,E]/[F,B,]/ | %16
 [E,B,]2 [E,G,] [A,,B,]2 [C,A,] [E,G,]2 E, C,2 A,, |[M:9/8] B,,2 B,, B,,2 B,, E,3 |] %18
V:3
 x12 | z2 E E2 E E2 B A2 c | z2 E E2 E E2 G B2 G | z2 D D2 D D2 A G2 F | z2 E E2 E E2 B, E2 F | %5
 z2 E E2 E E2 B A2 c | z2 G G2 G G2 G B2 e | z2 [DA] [DA]2 [DA] [DA]2 B A2 D | %8
[M:11/8] z2 B, B,2 C B,3 z2 |[M:1/8] x |[M:6/4] x12 | x12 | x12 | x12 | x12 | x12 | x12 | %17
[M:9/8] x9 |] %18

